X:828
T:Maho Snaps, The
S:Boys of the Lough
Z:Nigel Gatherer
M:6/8
L:1/8
K:G
D | GAG GBd | gdB GAB | cBc EFG | AFD  DEF |
    GAG GBd | gdB GAB | cAF AFD | GAG  G2 :|
B | dBd ece | fdf gfe | dBd efg | fd^c d2
B | dBd ece | fdf gfe | dcB Aaf | gGG  G2 :|
